X:5
T:John Barleycorn (Bampton) (Binghamton)
T:John Barleycorn Is A Hero Bold
M:4/4
S:Binghamton MM
O:England; Oxfordshire; Bampton.
R:Reel
P:A(ABC)4
M:4/4
L:1/4
K:G
Q:150
P:A
d | g g (f/e/) d | e e (d/c/) B | B>c B A | G3 d |
g g (f/e/) d | e e (d/c/) B | B>c B A | G3 |]
P:B
G | A B ^c A | d e f2 | g g f e | d3 d |
g g(f/e/) d | e e (d/c/) B | B>c B A | G3 |]
P:C
z | g2 g2 | f e d2 | e2 e2 | d c B2 |
G A B c | d e f2 | g2 (f/e/) f | g3 |]

